Newaita-dark/apps/64/usb-creator-gtk.svg

<svg height="64pt" viewBox="0 0 64 64" width="64pt" xmlns="http://www.w3.org/2000/svg" xmlns:xlink="http://www.w3.org/1999/xlink"><linearGradient id="a" gradientUnits="userSpaceOnUse" x1="26.46089112463" x2="26.46089112463" y1="56.06787012482" y2="58.71395612469"><stop offset="0" stop-opacity=".27451"/><stop offset="1" stop-opacity="0"/></linearGradient><linearGradient id="b"><stop offset="0" stop-opacity=".313726"/><stop offset=".222222" stop-opacity=".27451"/><stop offset="1" stop-opacity="0"/></linearGradient><radialGradient id="c" cx="450.908936" cy="189.579361" gradientTransform="matrix(.00000035 -.156265 -.281277 -.0000002 87.061744 127.190665)" gradientUnits="userSpaceOnUse" r="21.166656" xlink:href="#b"/><radialGradient id="d" cx="450.908936" cy="189.579361" gradientTransform="matrix(-.00000035 .156265 .281277 .0000002 -34.140017 -15.054958)" gradientUnits="userSpaceOnUse" r="21.166656" xlink:href="#b"/><radialGradient id="e" cx="450.908936" cy="189.579361" gradientTransform="matrix(-.00000035 -.156265 .281277 -.0000002 -34.140017 127.190665)" gradientUnits="userSpaceOnUse" r="21.166656" xlink:href="#b"/><radialGradient id="f" cx="450.908936" cy="189.579361" gradientTransform="matrix(.00000035 .156265 -.281277 .0000002 87.06174 -15.054959)" gradientUnits="userSpaceOnUse" r="21.166656" xlink:href="#b"/><linearGradient id="g" gradientUnits="userSpaceOnUse" x1="211.666672" x2="211.666672" y1="-41.666668" y2="-126.333344"><stop offset="0" stop-color="#ffca28"/><stop offset="1" stop-color="#ffe082"/></linearGradient><linearGradient id="h" gradientUnits="userSpaceOnUse" x1="211.666352" x2="211.666352" y1="-20.50024695395" y2="-168.66671875188"><stop offset="0" stop-color="#bdbdbd"/><stop offset="1" stop-color="#e0e0e0"/></linearGradient><linearGradient id="i" gradientUnits="userSpaceOnUse" x1="211.666352" x2="211.666352" y1="233.49944918561" y2="-20.50024695395"><stop offset="0" stop-color="#78909c"/><stop offset="1" stop-color="#90a4ae"/></linearGradient><linearGradient id="j" gradientUnits="userSpaceOnUse" x1="211.666672" x2="211.666672" y1="-20.499998" y2="233.5"><stop offset="0" stop-color="#546e7a"/><stop offset="1" stop-color="#607d8b"/></linearGradient><linearGradient id="k" gradientUnits="userSpaceOnUse" x1="322.791639" x2="322.791639" y1="34.50943269278" y2="233.6233585"><stop offset="0" stop-color="#e0e0e0"/><stop offset="1" stop-color="#bdbdbd"/></linearGradient><linearGradient id="l" gradientUnits="userSpaceOnUse" x1="322.791639" x2="322.791639" y1="175.98512286443" y2="92.14767625"><stop offset="0" stop-color="#f5f5f5"/><stop offset="1" stop-color="#e0e0e0"/></linearGradient><path d="m18.523438 56.066406h15.875v2.648438h-15.875zm0 0" fill="url(#a)"/><path d="m34.398438 56.066406h5.292968v-2.644531h-5.292968zm0 0" fill="url(#c)"/><path d="m18.523438 56.066406h-5.292969v2.648438h5.292969zm0 0" fill="url(#d)"/><path d="m18.523438 56.066406h-5.292969v-2.644531h5.292969zm0 0" fill="url(#e)"/><path d="m34.398438 56.066406h5.292968v2.648438h-5.292968zm0 0" fill="url(#f)"/><g stroke-width="3"><path d="m158.734842-126.320968h105.833643c5.874439 0 10.592738 4.718299 10.592738 10.561491v63.493937c0 5.874439-4.718299 10.592738-10.592738 10.592738h-105.833643c-5.843192 0-10.561492-4.718299-10.561492-10.592738v-63.493937c0-5.843192 4.7183-10.561491 10.561492-10.561491zm0 0" fill="url(#g)" stroke="#212121" stroke-linecap="square" stroke-linejoin="round" transform="matrix(.125012 0 0 .125012 0 26.877566)"/><path d="m148.17335-168.660675c-5.874439 0-10.592738 4.718299-10.592738 10.561491v137.611859c0 5.843192 4.718299 10.561491 10.592738 10.561491h126.987873c5.874439 0 10.592739-4.718299 10.592739-10.561491v-137.611859c0-5.843192-4.7183-10.561491-10.592739-10.561491zm21.15423 52.901198c5.874439 0 10.592738 4.718299 10.592738 10.592738v42.339707c0 5.843192-4.718299 10.561492-10.592738 10.561492-5.843192 0-10.592738-4.7183-10.592738-10.561492v-42.339707c0-5.874439 4.749546-10.592738 10.592738-10.592738zm42.339707 0c5.874439 0 10.592738 4.718299 10.592738 10.592738v42.339707c0 5.843192-4.718299 10.561492-10.592738 10.561492s-10.592739-4.7183-10.592739-10.561492v-42.339707c0-5.874439 4.7183-10.592738 10.592739-10.592738zm42.339707 0c5.843192 0 10.561491 4.718299 10.561491 10.592738v42.339707c0 5.843192-4.718299 10.561492-10.561491 10.561492-5.874439 0-10.592739-4.7183-10.592739-10.561492v-42.339707c0-5.874439 4.7183-10.592738 10.592739-10.592738zm0 0" fill="url(#h)" stroke="#212121" stroke-linecap="square" stroke-linejoin="round" transform="matrix(.125012 0 0 .125012 0 26.877566)"/><path d="m126.987873-20.487325c-11.717631 0-21.15423 9.436599-21.15423 21.15423v84.679413c5.874439 0 10.592739 4.7183 10.592739 10.561492v31.746968c0 5.874439-4.7183 10.592739-10.592739 10.592739v74.086675c0 11.717631 9.436599 21.154229 21.15423 21.154229h169.358827c11.717631 0 21.15423-9.436598 21.15423-21.154229v-74.086675c-5.874439 0-10.592738-4.7183-10.592738-10.592739v-31.746968c0-5.843192 4.718299-10.561492 10.592738-10.561492v-84.679413c0-11.717631-9.436599-21.15423-21.15423-21.15423zm0 0" fill="url(#i)" stroke="#212121" stroke-linecap="square" stroke-linejoin="round" transform="matrix(.125012 0 0 .125012 0 26.877566)"/><path d="m148.17335 85.346318h126.987873c5.843192 0 10.592739 4.7183 10.592739 10.561492v31.746968c0 5.843192-4.749547 10.592739-10.592739 10.592739h-126.987873c-5.843192 0-10.592738-4.749547-10.592738-10.592739v-31.746968c0-5.843192 4.749546-10.561492 10.592738-10.561492zm0 0" fill="url(#j)" stroke="#212121" stroke-linecap="square" stroke-linejoin="round" transform="matrix(.125012 0 0 .125012 0 26.877566)"/><path d="m322.781676 34.507423c-55.150983 0-99.552993 44.40201-99.552993 99.552993 0 55.150984 44.40201 99.552994 99.552993 99.552994s99.552993-44.40201 99.552993-99.552994c0-55.150983-44.40201-99.552993-99.552993-99.552993zm0 78.586246c11.62389 0 20.966748 9.374104 20.966748 20.966747 0 11.62389-9.342858 20.966748-20.966748 20.966748-11.592643 0-20.935501-9.342858-20.935501-20.966748 0-11.592643 9.342858-20.966747 20.935501-20.966747zm0 0" fill="url(#k)" stroke="#333" stroke-linecap="round" transform="matrix(.125012 0 0 .125012 0 26.877566)"/><path d="m322.781676 92.158168c-23.216533 0-41.902249 18.685715-41.902249 41.902248s18.685716 41.933496 41.902249 41.933496c23.24778 0 41.933495-18.716963 41.933495-41.933496s-18.685715-41.902248-41.933495-41.902248zm0 20.935501c11.62389 0 20.966748 9.374104 20.966748 20.966747 0 11.62389-9.342858 20.966748-20.966748 20.966748-11.592643 0-20.935501-9.342858-20.935501-20.966748 0-11.592643 9.342858-20.966747 20.935501-20.966747zm0 0" fill="url(#l)" stroke="#333" stroke-linecap="round" transform="matrix(.125012 0 0 .125012 0 26.877566)"/></g></svg>

<?xml version="1.0" encoding="UTF-8"?>
<svg xmlns="http://www.w3.org/2000/svg" xmlns:xlink="http://www.w3.org/1999/xlink" width="64pt" height="64pt" viewBox="0 0 64 64" version="1.1">
<defs>
<linearGradient id="linear0" gradientUnits="userSpaceOnUse" x1="507.999969" y1="233.499985" x2="507.999969" y2="254.666641" gradientTransform="matrix(0.125012,0,0,0.125012,-37.045201,26.87757)">
<stop offset="0" style="stop-color:rgb(0%,0%,0%);stop-opacity:0.27451;"/>
<stop offset="1" style="stop-color:rgb(0%,0%,0%);stop-opacity:0;"/>
</linearGradient>
<radialGradient id="radial0" gradientUnits="userSpaceOnUse" cx="450.908936" cy="189.579361" fx="450.908936" fy="189.579361" r="21.166656" gradientTransform="matrix(0.000000348341,-0.156265,-0.281277,-0.000000203077,87.061744,127.190665)">
<stop offset="0" style="stop-color:rgb(0%,0%,0%);stop-opacity:0.313726;"/>
<stop offset="0.222222" style="stop-color:rgb(0%,0%,0%);stop-opacity:0.27451;"/>
<stop offset="1" style="stop-color:rgb(0%,0%,0%);stop-opacity:0;"/>
</radialGradient>
<radialGradient id="radial1" gradientUnits="userSpaceOnUse" cx="450.908936" cy="189.579361" fx="450.908936" fy="189.579361" r="21.166656" gradientTransform="matrix(-0.000000348341,0.156265,0.281277,0.000000203077,-34.140017,-15.054958)">
<stop offset="0" style="stop-color:rgb(0%,0%,0%);stop-opacity:0.313726;"/>
<stop offset="0.222222" style="stop-color:rgb(0%,0%,0%);stop-opacity:0.27451;"/>
<stop offset="1" style="stop-color:rgb(0%,0%,0%);stop-opacity:0;"/>
</radialGradient>
<radialGradient id="radial2" gradientUnits="userSpaceOnUse" cx="450.908936" cy="189.579361" fx="450.908936" fy="189.579361" r="21.166656" gradientTransform="matrix(-0.000000348341,-0.156265,0.281277,-0.000000203077,-34.140017,127.190665)">
<stop offset="0" style="stop-color:rgb(0%,0%,0%);stop-opacity:0.313726;"/>
<stop offset="0.222222" style="stop-color:rgb(0%,0%,0%);stop-opacity:0.27451;"/>
<stop offset="1" style="stop-color:rgb(0%,0%,0%);stop-opacity:0;"/>
</radialGradient>
<radialGradient id="radial3" gradientUnits="userSpaceOnUse" cx="450.908936" cy="189.579361" fx="450.908936" fy="189.579361" r="21.166656" gradientTransform="matrix(0.000000348341,0.156265,-0.281277,0.000000203077,87.06174,-15.054959)">
<stop offset="0" style="stop-color:rgb(0%,0%,0%);stop-opacity:0.313726;"/>
<stop offset="0.222222" style="stop-color:rgb(0%,0%,0%);stop-opacity:0.27451;"/>
<stop offset="1" style="stop-color:rgb(0%,0%,0%);stop-opacity:0;"/>
</radialGradient>
<linearGradient id="linear1" gradientUnits="userSpaceOnUse" x1="254" y1="-41.666668" x2="254" y2="-126.333344" gradientTransform="matrix(1,0,0,1,-42.333328,0)">
<stop offset="0" style="stop-color:rgb(100%,79.215688%,15.686275%);stop-opacity:1;"/>
<stop offset="1" style="stop-color:rgb(100%,87.843138%,50.980395%);stop-opacity:1;"/>
</linearGradient>
<linearGradient id="linear2" gradientUnits="userSpaceOnUse" x1="960" y1="735.118103" x2="960" y2="175.118134" gradientTransform="matrix(0.264583,0,0,0.264583,-42.333328,-215)">
<stop offset="0" style="stop-color:rgb(74.117649%,74.117649%,74.117649%);stop-opacity:1;"/>
<stop offset="1" style="stop-color:rgb(87.843138%,87.843138%,87.843138%);stop-opacity:1;"/>
</linearGradient>
<linearGradient id="linear3" gradientUnits="userSpaceOnUse" x1="960" y1="1695.118164" x2="960" y2="735.118103" gradientTransform="matrix(0.264583,0,0,0.264583,-42.333328,-215)">
<stop offset="0" style="stop-color:rgb(47.058824%,56.470591%,61.176473%);stop-opacity:1;"/>
<stop offset="1" style="stop-color:rgb(56.470591%,64.313728%,68.235296%);stop-opacity:1;"/>
</linearGradient>
<linearGradient id="linear4" gradientUnits="userSpaceOnUse" x1="254" y1="-20.499998" x2="254" y2="233.5" gradientTransform="matrix(1,0,0,1,-42.333328,0)">
<stop offset="0" style="stop-color:rgb(32.941177%,43.137255%,47.843137%);stop-opacity:1;"/>
<stop offset="1" style="stop-color:rgb(37.64706%,49.019608%,54.509807%);stop-opacity:1;"/>
</linearGradient>
<linearGradient id="linear5" gradientUnits="userSpaceOnUse" x1="254" y1="-168.666672" x2="254" y2="233.5" gradientTransform="matrix(0.495103,0,0,0.495103,197.035477,118.016808)">
<stop offset="0" style="stop-color:rgb(87.843138%,87.843138%,87.843138%);stop-opacity:1;"/>
<stop offset="1" style="stop-color:rgb(74.117649%,74.117649%,74.117649%);stop-opacity:1;"/>
</linearGradient>
<linearGradient id="linear6" gradientUnits="userSpaceOnUse" x1="254" y1="117.083344" x2="254" y2="-52.25" gradientTransform="matrix(0.495103,0,0,0.495103,197.035477,118.016808)">
<stop offset="0" style="stop-color:rgb(96.078432%,96.078432%,96.078432%);stop-opacity:1;"/>
<stop offset="1" style="stop-color:rgb(87.843138%,87.843138%,87.843138%);stop-opacity:1;"/>
</linearGradient>
</defs>
<g id="surface1">
<path style=" stroke:none;fill-rule:nonzero;fill:url(#linear0);" d="M 18.523438 56.066406 L 34.398438 56.066406 L 34.398438 58.714844 L 18.523438 58.714844 Z M 18.523438 56.066406 "/>
<path style=" stroke:none;fill-rule:nonzero;fill:url(#radial0);" d="M 34.398438 56.066406 L 39.691406 56.066406 L 39.691406 53.421875 L 34.398438 53.421875 Z M 34.398438 56.066406 "/>
<path style=" stroke:none;fill-rule:nonzero;fill:url(#radial1);" d="M 18.523438 56.066406 L 13.230469 56.066406 L 13.230469 58.714844 L 18.523438 58.714844 Z M 18.523438 56.066406 "/>
<path style=" stroke:none;fill-rule:nonzero;fill:url(#radial2);" d="M 18.523438 56.066406 L 13.230469 56.066406 L 13.230469 53.421875 L 18.523438 53.421875 Z M 18.523438 56.066406 "/>
<path style=" stroke:none;fill-rule:nonzero;fill:url(#radial3);" d="M 34.398438 56.066406 L 39.691406 56.066406 L 39.691406 58.714844 L 34.398438 58.714844 Z M 34.398438 56.066406 "/>
<path style="fill-rule:nonzero;fill:url(#linear1);stroke-width:3;stroke-linecap:square;stroke-linejoin:round;stroke:rgb(12.941177%,12.941177%,12.941177%);stroke-opacity:1;stroke-miterlimit:4;" d="M 158.734842 -126.320968 L 264.568485 -126.320968 C 270.442924 -126.320968 275.161223 -121.602669 275.161223 -115.759477 L 275.161223 -52.26554 C 275.161223 -46.391101 270.442924 -41.672802 264.568485 -41.672802 L 158.734842 -41.672802 C 152.89165 -41.672802 148.17335 -46.391101 148.17335 -52.26554 L 148.17335 -115.759477 C 148.17335 -121.602669 152.89165 -126.320968 158.734842 -126.320968 Z M 158.734842 -126.320968 " transform="matrix(0.125012,0,0,0.125012,0,26.877566)"/>
<path style="fill-rule:nonzero;fill:url(#linear2);stroke-width:3;stroke-linecap:square;stroke-linejoin:round;stroke:rgb(12.941177%,12.941177%,12.941177%);stroke-opacity:1;stroke-miterlimit:4;" d="M 148.17335 -168.660675 C 142.298911 -168.660675 137.580612 -163.942376 137.580612 -158.099184 L 137.580612 -20.487325 C 137.580612 -14.644133 142.298911 -9.925834 148.17335 -9.925834 L 275.161223 -9.925834 C 281.035662 -9.925834 285.753962 -14.644133 285.753962 -20.487325 L 285.753962 -158.099184 C 285.753962 -163.942376 281.035662 -168.660675 275.161223 -168.660675 Z M 169.32758 -115.759477 C 175.202019 -115.759477 179.920318 -111.041178 179.920318 -105.166739 L 179.920318 -62.827032 C 179.920318 -56.98384 175.202019 -52.26554 169.32758 -52.26554 C 163.484388 -52.26554 158.734842 -56.98384 158.734842 -62.827032 L 158.734842 -105.166739 C 158.734842 -111.041178 163.484388 -115.759477 169.32758 -115.759477 Z M 211.667287 -115.759477 C 217.541726 -115.759477 222.260025 -111.041178 222.260025 -105.166739 L 222.260025 -62.827032 C 222.260025 -56.98384 217.541726 -52.26554 211.667287 -52.26554 C 205.792848 -52.26554 201.074548 -56.98384 201.074548 -62.827032 L 201.074548 -105.166739 C 201.074548 -111.041178 205.792848 -115.759477 211.667287 -115.759477 Z M 254.006994 -115.759477 C 259.850186 -115.759477 264.568485 -111.041178 264.568485 -105.166739 L 264.568485 -62.827032 C 264.568485 -56.98384 259.850186 -52.26554 254.006994 -52.26554 C 248.132555 -52.26554 243.414255 -56.98384 243.414255 -62.827032 L 243.414255 -105.166739 C 243.414255 -111.041178 248.132555 -115.759477 254.006994 -115.759477 Z M 254.006994 -115.759477 " transform="matrix(0.125012,0,0,0.125012,0,26.877566)"/>
<path style="fill-rule:nonzero;fill:url(#linear3);stroke-width:3;stroke-linecap:square;stroke-linejoin:round;stroke:rgb(12.941177%,12.941177%,12.941177%);stroke-opacity:1;stroke-miterlimit:4;" d="M 126.987873 -20.487325 C 115.270242 -20.487325 105.833643 -11.050726 105.833643 0.666905 L 105.833643 85.346318 C 111.708082 85.346318 116.426382 90.064618 116.426382 95.90781 L 116.426382 127.654778 C 116.426382 133.529217 111.708082 138.247517 105.833643 138.247517 L 105.833643 212.334192 C 105.833643 224.051823 115.270242 233.488421 126.987873 233.488421 L 296.3467 233.488421 C 308.064331 233.488421 317.50093 224.051823 317.50093 212.334192 L 317.50093 138.247517 C 311.626491 138.247517 306.908192 133.529217 306.908192 127.654778 L 306.908192 95.90781 C 306.908192 90.064618 311.626491 85.346318 317.50093 85.346318 L 317.50093 0.666905 C 317.50093 -11.050726 308.064331 -20.487325 296.3467 -20.487325 Z M 126.987873 -20.487325 " transform="matrix(0.125012,0,0,0.125012,0,26.877566)"/>
<path style="fill-rule:nonzero;fill:url(#linear4);stroke-width:3;stroke-linecap:square;stroke-linejoin:round;stroke:rgb(12.941177%,12.941177%,12.941177%);stroke-opacity:1;stroke-miterlimit:4;" d="M 148.17335 85.346318 L 275.161223 85.346318 C 281.004415 85.346318 285.753962 90.064618 285.753962 95.90781 L 285.753962 127.654778 C 285.753962 133.49797 281.004415 138.247517 275.161223 138.247517 L 148.17335 138.247517 C 142.330158 138.247517 137.580612 133.49797 137.580612 127.654778 L 137.580612 95.90781 C 137.580612 90.064618 142.330158 85.346318 148.17335 85.346318 Z M 148.17335 85.346318 " transform="matrix(0.125012,0,0,0.125012,0,26.877566)"/>
<path style="fill-rule:nonzero;fill:url(#linear5);stroke-width:3;stroke-linecap:round;stroke-linejoin:miter;stroke:rgb(20%,20%,20%);stroke-opacity:1;stroke-miterlimit:4;" d="M 322.781676 34.507423 C 267.630693 34.507423 223.228683 78.909433 223.228683 134.060416 C 223.228683 189.2114 267.630693 233.61341 322.781676 233.61341 C 377.932659 233.61341 422.334669 189.2114 422.334669 134.060416 C 422.334669 78.909433 377.932659 34.507423 322.781676 34.507423 Z M 322.781676 113.093669 C 334.405566 113.093669 343.748424 122.467773 343.748424 134.060416 C 343.748424 145.684306 334.405566 155.027164 322.781676 155.027164 C 311.189033 155.027164 301.846175 145.684306 301.846175 134.060416 C 301.846175 122.467773 311.189033 113.093669 322.781676 113.093669 Z M 322.781676 113.093669 " transform="matrix(0.125012,0,0,0.125012,0,26.877566)"/>
<path style="fill-rule:nonzero;fill:url(#linear6);stroke-width:3;stroke-linecap:round;stroke-linejoin:miter;stroke:rgb(20%,20%,20%);stroke-opacity:1;stroke-miterlimit:4;" d="M 322.781676 92.158168 C 299.565143 92.158168 280.879427 110.843883 280.879427 134.060416 C 280.879427 157.276949 299.565143 175.993912 322.781676 175.993912 C 346.029456 175.993912 364.715171 157.276949 364.715171 134.060416 C 364.715171 110.843883 346.029456 92.158168 322.781676 92.158168 Z M 322.781676 113.093669 C 334.405566 113.093669 343.748424 122.467773 343.748424 134.060416 C 343.748424 145.684306 334.405566 155.027164 322.781676 155.027164 C 311.189033 155.027164 301.846175 145.684306 301.846175 134.060416 C 301.846175 122.467773 311.189033 113.093669 322.781676 113.093669 Z M 322.781676 113.093669 " transform="matrix(0.125012,0,0,0.125012,0,26.877566)"/>
</g>
</svg>
